X:1
T:Title
%%score [ ( 1 2 ) ( 3 4 ) ] { ( 5 6 ) | 7 }
L:1/8
Q:1/4=120
M:4/4
K:E
V:1 treble nm="Midi_74"
V:2 treble 
V:3 bass nm="Midi_74"
V:4 bass 
V:5 treble nm="Org."
V:6 treble 
V:7 bass 
V:1
 (G6 E2) | B4 ^A4 | B8 || E8 | E4 E4 | A4 G4 |{G} F8 || (A6 F2) | c4 ^B4 | c8 || (e6 d2) | %11
"^William Henry Havergal\n(1793-1870)" c4 B4 | A4 F4 | E8 |] %14
V:2
 E8 | F4 E4 | D8 || (E6 D2) | C4 B,4 | D4 E4 |{E} D8 || F8 | G4 F4 | E8 || E8 | E4 E4 | F4 D4 | %13
 E8 |] %14
V:3
 B,8 | B,4 E,4 | F,8 || B,8 | A,4 B,4 | B,4 B,4 | B,8 || C8 | C4 F,4 | G,8 || B,8 | A,4 B,4 | %12
 C4 A,4 | G,8 |] %14
V:4
 E,8 | D,4 C,4 | B,,8 || G,8 | A,4 G,4 | F,4 E,4 | B,,8 || F,8 | E,4 D,4 | C,8 || G,,8 | %11
 A,,4 G,,4 | A,,4 B,,4 | E,8 |] %14
V:5
 G6 E2 | B4 ^A4 | B8 || E8 | E4 E4 | A4 G4 |{G} F8 || A6 F2 | c4 ^B4 | c8 || e6 d2 | c4 B4 | %12
 A4 F4 | E8 |] %14
V:6
 [B,E]8 | [B,F]4 E4 | D8 || E6 D2 | C4 B,4 | [B,D]4 [B,E]4 |{E} [B,D]8 || [CF]8 | [CG]4 F4 | E8 || %10
 [EB]8 | [EA]4 E4 | [CF]4 [A,D]4 | E8 |] %14
V:7
 E,8 | D,4 C,4 | B,,8 || [G,B,]8 | A,4 G,4 | F,4 E,4 | B,,8 || F,8 | E,4 D,4 | C,8 || G,,8 | %11
 A,,4 G,,4 | A,,4 B,,4 | [E,G,]8 |] %14

